!!!COM: Palestrina, Giovanni Perluigi da
!!!OPR: Tu es pastor ovium
!!!OTL: Agnus II
**kern	**kern	**kern	**kern	**kern	**kern
*Ibass	*Itenor	*Itenor	*Icalto	*Icalto	*Icant
!Bassus	!Tenor 2	!Tenor 1	!Altus 2	!Altus 1	!Cantus
*clefF4	*clefGv2	*clefGv2	*clefG2	*clefG2	*clefG2
*k[b-]	*k[b-]	*k[b-]	*k[b-]	*k[b-]	*k[b-]
*G:dor	*G:dor	*G:dor	*G:dor	*G:dor	*G:dor
*M4/2	*M4/2	*M4/2	*M4/2	*M4/2	*M4/2
=1	=1	=1	=1	=1	=1
0r	1d	0r	0r	1a	0dd
.	1g	.	.	1b-	.
=2	=2	=2	=2	=2	=2
0r	2f#	0r	0r	2a	1dd
.	2.g	.	.	2.b-	.
.	.	.	.	.	[1ee-
.	4f	.	.	4a	.
.	4e-	.	.	4g	.
.	4d	.	.	4f	.
=3	=3	=3	=3	=3	=3
0r	2c	0r	0r	4g	2ee-]
.	.	.	.	4a	.
.	2B-	.	.	2b-	2dd
.	1c	.	.	2a	2cc
.	.	.	.	[2g	2b-
=4	=4	=4	=4	=4	=4
1D	2.d	0d	1a	2g]	1a
.	.	.	.	2f#	.
.	4c	.	.	.	.
1G	4B-	.	1b-	1g	4g
.	4A	.	.	.	4a
.	2G	.	.	.	4b-
.	.	.	.	.	4cc
=5	=5	=5	=5	=5	=5
2F#	2A	1d	2a	0r	1dd
2.G	2G	.	2.b-	.	.
.	2B-	[1e-	.	.	1r
4F	.	.	4a	.	.
4E-	[2c	.	4g	.	.
4D	.	.	4f	.	.
=6	=6	=6	=6	=6	=6
2C	2c]	2e-]	4g	0r	0r
.	.	.	4a	.	.
2BB-	2d	2d	2b-	.	.
1C	1e-	2c	2a	.	.
.	.	2B-	[2g	.	.
=7	=7	=7	=7	=7	=7
1D	1d	2A	4g]	[0a	1r
.	.	.	4f	.	.
.	.	1d	2f	.	.
1A	1r	.	1e	.	1ee
.	.	2c#	.	.	.
=8	=8	=8	=8	=8	=8
1D	2r	1d	2r	1a]	1ff
.	2d	.	2d	.	.
1r	2c#	1r	2e	1a	2ee
.	[2d	.	2d	.	[2ff
=9	=9	=9	=9	=9	=9
0r	4d]	0r	2f	1.b-	4ff]
.	4c	.	.	.	4ee
.	4B-	.	1g	.	4dd
.	4A	.	.	.	4cc
.	2G	.	.	.	4dd
.	.	.	.	.	4ee
.	2F	.	[2cc	2a	2ff
=10	=10	=10	=10	=10	=10
0r	1G	0r	2cc]	2.g	2ee
.	.	.	2b-	.	1dd
.	.	.	.	4f	.
.	1A	.	1a	1e	.
.	.	.	.	.	2cc#
=11	=11	=11	=11	=11	=11
1G	0r	1d	1b	0g	1dd
1c	.	1e	2cc	.	2r
.	.	.	[2g	.	2cc
=12	=12	=12	=12	=12	=12
2B	1r	2d	4g]	1g	2dd
.	.	.	4f	.	.
2.c	.	2.e	4e	.	4cc
.	.	.	4d	.	4b-
.	2r	.	1c	[1a	[1cc
4B-	.	8d	.	.	.
.	.	8e	.	.	.
4A	2F	[2f	.	.	.
4G	.	.	.	.	.
=13	=13	=13	=13	=13	=13
2F	2A	4f]	0r	2a]	2cc]
.	.	4e	.	.	.
2G	2B-	2d	.	4g	2b-
.	.	.	.	4f	.
2A	2c	2c	.	2e	1a
2F	[2d	2A	.	2f	.
=14	=14	=14	=14	=14	=14
0G	2d]	2B	0r	2d	[0g
.	1c	2c	.	2e-	.
.	.	1d	.	1d	.
.	2B	.	.	.	.
=15	=15	=15	=15	=15	=15
2C	2c	1e	2r	2c	1g]
2C	2c	.	2e	2g	.
1G	1d	1r	1g	1b-	1r
=16	=16	=16	=16	=16	=16
1.F	1f	0r	1c	2a	0r
.	.	.	.	4f	.
.	.	.	.	4g	.
.	1F	.	1f	4a	.
.	.	.	.	4b-	.
2A	.	.	.	2cc	.
=17	=17	=17	=17	=17	=17
2G	2G	1r	2d	2b-	1r
2F#	2A	.	2d	1a	.
1G	1B-	2r	1d	.	1dd
.	.	2G	.	2g	.
=18	=18	=18	=18	=18	=18
1D	1F	1d	2d	2a	1ff
.	.	.	2a	2f	.
1r	1r	[1c	1cc	1g	2ee
.	.	.	.	.	4cc
.	.	.	.	.	4dd
=19	=19	=19	=19	=19	=19
0r	0r	2c]	1c	2g	4ee
.	.	.	.	.	4ff
.	.	2e	.	2g	2gg
.	.	2d	2r	2.a	2ff
.	.	2c#	2e	.	[2ee
.	.	.	.	4g	.
=20	=20	=20	=20	=20	=20
0r	0r	1d	2a	2f	4ee]
.	.	.	.	.	4dd
.	.	.	2a	2f	1dd
.	.	1A	1a	1e	.
.	.	.	.	.	2cc#
=21	=21	=21	=21	=21	=21
2r	2r	0d	2f	1d	2dd
2G	2d	.	2b-	.	2dd
1d	1f	.	1a	2r	1dd
.	.	.	.	2d	.
=22	=22	=22	=22	=22	=22
1.c	2e	0r	1cc	2.g	2.ee
.	4c	.	.	.	.
.	4d	.	.	4f	4ff
.	4e	.	1g	2e	1gg
.	4f	.	.	.	.
2B-	2g	.	.	2d	.
=23	=23	=23	=23	=23	=23
2A	2f	0r	2a	2c	0r
2G	1e	.	2b-	1g	.
[1A	.	.	1a	.	.
.	[2d	.	.	2f	.
=24	=24	=24	=24	=24	=24
1A]	2d]	2r	1a	1e	2r
.	2c#	2A	.	.	2ee
2D	[1d	1d	2r	2d	1ff
2D	.	.	2a	2f	.
=25	=25	=25	=25	=25	=25
1G	1d]	2B-	1b-	1g	2dd
.	.	2G	.	.	4b-
.	.	.	.	.	4cc
1D	2r	1A	2a	2f	4dd
.	.	.	.	.	4ee
.	2d	.	2f	2d	2ff
=26	=26	=26	=26	=26	=26
1BB-	1d	2B-	2f	1f	2dd
.	.	4B-	2d	.	2.ff
.	.	4c	.	.	.
4BB-	2B-	4d	2.f	1d	.
4C	.	4e	.	.	4ee
4D	2B-	[2f	.	.	2dd
4E	.	.	4g	.	.
=27	=27	=27	=27	=27	=27
2F	2A	4f]	2a	2r	2cc
.	.	4e	.	.	.
2BB-	2B-	2d	2.f	4d	1b-
.	.	.	.	4e	.
1F	2c	1c	.	4f	.
.	.	.	4e	4g	.
.	[2F	.	2c	[2f	2a
=28	=28	=28	=28	=28	=28
0BB-	2F]	0B-	2.d	2f]	1b-
.	2.f	.	.	2B-	.
.	.	.	4e	.	.
.	.	.	[1f	2r	[1dd
.	4e	.	.	.	.
.	4d	.	.	[2b-	.
.	4c	.	.	.	.
=29	=29	=29	=29	=29	=29
0r	2B-	0r	1f]	2b-]	2dd]
.	2F	.	.	2a	2cc
.	2G	.	1r	2g	2b-
.	2d	.	.	2f	2a
=30	=30	=30	=30	=30	=30
0r	2e-	0r	0r	2g	2g
.	2d	.	.	2.a	2f#
.	1e-	.	.	.	1g
.	.	.	.	4g	.
.	.	.	.	[2g	.
=31	=31	=31	=31	=31	=31
1r	1d	1r	1r	2g]	1a
.	.	.	.	2f#	.
2r	1G	2.d	[1b-	1g	1g
[2d	.	.	.	.	.
.	.	4e	.	.	.
=32	=32	=32	=32	=32	=32
2d]	0r	2f	2b-]	0r	0r
2c	.	2e	2a	.	.
2B-	.	2d	2g	.	.
2A	.	2c	2f	.	.
=33	=33	=33	=33	=33	=33
2G	1.d	2B-	2g	0r	0r
2F#	.	2A	2a	.	.
2G	.	2G	2b-	.	.
2C	2c	[2e-	[2a	.	.
=34	=34	=34	=34	=34	=34
1E-	2B-	2e-]	4a]	0r	0r
.	.	.	4g	.	.
.	2G	2c	1g	.	.
1D	1A	[1d	.	.	.
.	.	.	2f#	.	.
=35	=35	=35	=35	=35	=35
2r	1G	1d]	1g	2r	2r
1B-	.	.	.	2d	1dd
.	1r	2B-	1r	1f	.
2A	.	2c	.	.	2cc
=36	=36	=36	=36	=36	=36
2G	0r	2d	2r	2g	2b-
2F	.	2.f	1a	2c	2a
1B-	.	.	.	2d	2f
.	.	4e	.	.	.
.	.	[2d	2g	2d	2g
=37	=37	=37	=37	=37	=37
1A	0r	4d]	2f	2r	[0a
.	.	4c	.	.	.
.	.	2c	2e	2.a	.
2.F	.	1A	2d	.	.
.	.	.	.	4g	.
.	.	.	2c	[2f	.
4E	.	.	.	.	.
=38	=38	=38	=38	=38	=38
2D	2.a	[0A	2d	2f]	1a_
2C#	.	.	2e	1e	.
.	4g	.	.	.	.
1D	2f	.	2.f	.	1a_
.	2d	.	.	[2d	.
.	.	.	4g	.	.
=39	=39	=39	=39	=39	=39
1AA	1e	0A]	2a	2d]	0a]
.	.	.	2e	2c#	.
[1D	2d	.	1f	4d	.
.	.	.	.	4e	.
.	[2a	.	.	4f	.
.	.	.	.	4g	.
=40	=40	=40	=40	=40	=40
1D]	4a]	2r	2.d	1a	2r
.	4g	.	.	.	.
.	4f	1a	.	.	1ff
.	4e	.	4e	.	.
1r	2d	.	2f	1r	.
.	2e	2g	2g	.	2ee
=41	=41	=41	=41	=41	=41
0r	2f	2f	2a	0r	2dd
.	2g	2e	2g	.	2cc
.	[1a	2d	2f	.	2dd
.	.	2c#	2e	.	2ee
=42	=42	=42	=42	=42	=42
0r	2a]	2d	2d	0r	2ff
.	4g	2G	1b-	.	2.ee
.	4f	.	.	.	.
.	4g	1B-	.	.	.
.	4f	.	.	.	4dd
.	4e	.	2g	.	[2dd
.	4d	.	.	.	.
=43	=43	=43	=43	=43	=43
1r	1e	1A	[0a	1r	2dd]
.	.	.	.	.	2cc#
[1D	[1d	1d	.	[1f	1dd
=44	=44	=44	=44	=44	=44
2D]	0d]	1A	1a]	2f]	1.ff
2C	.	.	.	2e	.
1BB-	.	2B-	1r	2d	.
.	.	2c	.	2c	2ee
=45	=45	=45	=45	=45	=45
0BB-	1r	1d	0b-	2B-	2dd
.	.	.	.	2c	2cc
.	[1f	1d	.	2d	1b-
.	.	.	.	4f	.
.	.	.	.	4g	.
=46	=46	=46	=46	=46	=46
1F	1f]	0c	1a	4a	0cc
.	.	.	.	4b-	.
.	.	.	.	1cc	.
1C	1e	.	2g	.	.
.	.	.	[2cc	2g	.
=47	=47	=47	=47	=47	=47
2.G	2.d	2r	2cc]	1g	[0dd
.	.	2G	2.b-	.	.
4G	4c	.	.	.	.
2G	2B-	2d	.	1g	.
.	.	.	4a	.	.
2G	2B-	[2d	[2g	.	.
=48	=48	=48	=48	=48	=48
0D	0A	2d]	2g]	0a	0dd]
.	.	2d	4f#	.	.
.	.	.	4e	.	.
.	.	1d	1f#	.	.
=49	=49	=49	=49	=49	=49
0G	0G	0d	0g	0b	0dd
==	==	==	==	==	==
*-	*-	*-	*-	*-	*-
!!!CDT: 1525/^1526/-1594/2/2
!!!OCY: Italia
!!!AGN: Mass (Parody)
!!!AST: renaissance, vocal
!!!ASW: Motet (Palestrina)
!!!PWK: Masses, Book 7
!!!RNB: Cadence finals: D
!!!YOR: Le Opere Complete, v. 23, p. 115
!!!YOO: Rome, Italy: Fratelli Scalera
!!!END: 1992//
!!!EED: John Miller
!!!YEC: Copyright 2000, John Miller
!!!YEN: United States of America
!!!YEM: Rights to all derivative electronic formats reserved.
!!!YEM: Refer to licensing agreement for further details.
!!!YEM: This file must be accompanied by the licensing agreement.
!!!YEM: A copy of the licensing agreement may be found at http://www.music-cog.ohio-state.edu/HumdrumDatabases/Palestrina/license.txt
!!!EMD: converted to Humdrum by Bret Aarden
